svg/sport/toxophily_line.svg

<?xml version="1.0" encoding="UTF-8"?>
<svg width="24px" height="24px" viewBox="0 0 24 24" version="1.1" xmlns="http://www.w3.org/2000/svg" xmlns:xlink="http://www.w3.org/1999/xlink">
    <title>toxophily_line</title>
    <g id="Icon" stroke="none" stroke-width="1" fill="none" fill-rule="evenodd">
        <g id="Sport" transform="translate(-864.000000, 0.000000)">
            <g id="toxophily_line" transform="translate(864.000000, 0.000000)">
                <path d="M24,0 L24,24 L0,24 L0,0 L24,0 Z M12.5935,23.2578 L12.5819,23.2595 L12.5109,23.295 L12.4919,23.2987 L12.4767,23.295 L12.4057,23.2595 C12.3958,23.2564 12.387,23.259 12.3821,23.2649 L12.378,23.2758 L12.3609,23.7031 L12.3659,23.7235 L12.3769,23.7357 L12.4805,23.8097 L12.4953,23.8136 L12.5071,23.8097 L12.6107,23.7357 L12.6233,23.7197 L12.6267,23.7031 L12.6096,23.2758 C12.6076,23.2657 12.601,23.2593 12.5935,23.2578 Z M12.8584,23.1453 L12.8445,23.1473 L12.6598,23.2397 L12.6499,23.2499 L12.6472,23.2611 L12.6651,23.6906 L12.6699,23.7034 L12.6784,23.7105 L12.8793,23.8032 C12.8914,23.8069 12.9022,23.803 12.9078,23.7952 L12.9118,23.7812 L12.8777,23.1665 C12.8753,23.1546 12.8674,23.147 12.8584,23.1453 Z M12.143,23.1473 C12.1332,23.1424 12.1222,23.1453 12.1156,23.1526 L12.1099,23.1665 L12.0758,23.7812 C12.0751,23.7927 12.0828,23.8019 12.0926,23.8046 L12.1083,23.8032 L12.3092,23.7105 L12.3186,23.7024 L12.3225,23.6906 L12.3404,23.2611 L12.3372,23.2485 L12.3278,23.2397 L12.143,23.1473 Z" id="MingCute" fill-rule="nonzero"></path>
                <path d="M10.7071,2.29289 C10.3166,1.90237 9.68342,1.90237 9.29289,2.29289 C8.90237,2.68342 8.90237,3.31658 9.29289,3.70711 L9.73038,4.14459 L5.44575,11 L5,11 C4.44772,11 4,11.4477 4,12 C4,12.5523 4.44772,13 5,13 L5.44575,13 L9.73038,19.8554 L9.29289,20.2929 C8.90237,20.6834 8.90237,21.3166 9.29289,21.7071 C9.68342,22.0976 10.3166,22.0976 10.7071,21.7071 L11.6371,20.7771 L13.4128,19.5933 C14.3379,18.9766 15.0311,18.069 15.3827,17.0142 L16.7208,13 L18,13 L18.0001,13 C18.0001,13.4045 18.2437,13.7691 18.6174,13.9239 C18.9911,14.0787 19.4212,13.9931 19.7072,13.7071 L20.7072,12.7071 C21.0977,12.3166 21.0977,11.6834 20.7072,11.2929 L19.7072,10.2929 C19.4212,10.0069 18.9911,9.92134 18.6174,10.0761 C18.2437,10.2309 18.0001,10.5955 18.0001,11 L18,11 L16.7208,11 L15.3827,6.98577 C15.0311,5.93095 14.3379,5.02342 13.4128,4.40666 L11.6371,3.22288 L10.7071,2.29289 Z M11.3022,18.5967 L12.3034,17.9292 C12.8585,17.5592 13.2744,17.0147 13.4853,16.3818 L14.6126,13 L7.80425,13 L11.3022,18.5967 Z M7.80425,11 L14.6126,11 L13.4853,7.61823 C13.2744,6.98534 12.8585,6.44082 12.3034,6.07076 L11.3022,5.40331 L7.80425,11 Z" id="形状" fill="#09244B"></path>
            </g>
        </g>
    </g>
</svg>

<svg xmlns="http://www.w3.org/2000/svg" width="24" height="24"><g fill="none" fill-rule="evenodd"><path d="M24 0v24H0V0h24ZM12.594 23.258l-.012.002-.071.035-.02.004-.014-.004-.071-.036c-.01-.003-.019 0-.024.006l-.004.01-.017.428.005.02.01.013.104.074.015.004.012-.004.104-.074.012-.016.004-.017-.017-.427c-.002-.01-.009-.017-.016-.018Zm.264-.113-.014.002-.184.093-.01.01-.003.011.018.43.005.012.008.008.201.092c.012.004.023 0 .029-.008l.004-.014-.034-.614c-.003-.012-.01-.02-.02-.022Zm-.715.002a.023.023 0 0 0-.027.006l-.006.014-.034.614c0 .012.007.02.017.024l.015-.002.201-.093.01-.008.003-.011.018-.43-.003-.012-.01-.01-.184-.092Z"/><path fill="#09244B" d="M10.707 2.293a1 1 0 0 0-1.414 1.414l.437.438L5.446 11H5a1 1 0 1 0 0 2h.446l4.284 6.855-.437.438a1 1 0 1 0 1.414 1.414l.93-.93 1.776-1.184a5 5 0 0 0 1.97-2.579L16.72 13H18a1 1 0 0 0 1.707.707l1-1a1 1 0 0 0 0-1.414l-1-1A1 1 0 0 0 18 11h-1.28l-1.337-4.014a5 5 0 0 0-1.97-2.58l-1.776-1.183-.93-.93Zm.595 16.304 1.001-.668a3 3 0 0 0 1.182-1.547L14.613 13H7.804l3.498 5.597ZM7.804 11h6.809l-1.128-3.382a3 3 0 0 0-1.182-1.547l-1-.668L7.803 11Z"/></g></svg>
